X:1
T:Dans
T:Dans
T:Joseph Haydn
T:Public Domain
C:Joseph Haydn
Z:Public Domain
%%score { 1 | 2 }
L:1/8
M:3/4
K:D
V:1 treble nm="Piano" snm="Pno."
V:2 bass 
V:1
!mf!!mf! A2 | d2 A2 A2 | A2 FAdf | [fa]4 [eg]2 | [df]2 z2 A2 | F2 D2 f2 | (3efg f2!p! A2 | %7
!mp! F2 D2 f2 | (3efg f2 (3ABc | d2 f2 ^g2 | a2 (3abc' a2 | (3fed c2 (5:4:5B/c/B/A/B/ | A4 :: %13
!p! A2 | [eg]6 | [df]6 | e2 (3bag (3fed | (3cde A2 A2 | d2 A2 f2 | (3efg f2 A2 | d2 A2 a2 | %21
 (3gab a2 a2 | d'2 a2 a2 | b2 g2 g2 | (3fga d2 c2 | d4 :|[M:3/4]!mf! [FA][EG] | [DF]2 [DF]2 [DF]2 | %28
 [DF]2 D2 [DF]2 | [EG]2 [CE]2 [CE]2 | [DF]2!p! DEFD | [EG]2 [CE]2 [CE]2 | [DF]2 DEF^G | A2 A2 B^G | %34
 A4 ::!mf! A,2 | [CE]2 [CE]2 [CE]2 | [DF]2 DEFG | [FA]2 A2 d2 | [FA]2 [DF]2 [FA]2 | [EG]2 EFGE | %41
 [DF]2 [GB]2 [FA]2 | [EG]2 [DF]2 [CE]2 | D4 |] %44
V:2
 A,2 | D2 A,2 A,2 | A,2 F,2 z2 | z2 [A,,A,]2 [A,,A,]2 | [D,D]2 D,2 A,2 | F,2 D,2 D2 | C2 D2 A,2 | %7
 F,2 D,2 D2 | C2 D2 z2 | [D,D]2 [D,D]2 [D,D]2 | [C,C]4 [C,C]2 | D2 E2 E,2 | A,2 A,,2 :: z2 | %14
 A,2 A,,2 A,,2 | D2 D,2 D,2 | G,2 E,2 G,2 | A,2 A,,2 A,2 | D2 A,2 D2 | C2 D2 A,2 | D2 A,2 F2 | %21
 E2 F2 z2 | [F,D]2 [F,D]2 [F,D]2 | [G,D]2 [G,B,]2 [A,C]2 | [D,D]2 [A,F]2 [A,E]2 |!p! D2 D,2 :| %26
[M:3/4] z2 | [D,,D,]2 z2 z2 | [D,,D,]2 z2 z2 | [A,,,A,,]2 z2 z2 | [D,,D,]2 z2 z2 | %31
 [A,,,A,,]2 z2 z2 | D,2 D,E,F,^G, | A,2 A,2 B,^G, | A,4 :: z2 | [A,,,A,,]2 z2 z2 | [D,,D,]2 z2 z2 | %38
 [D,,D,]2 z2 z2 | [D,,D,]2 z2 z2 | [A,,,A,,]2 z2 z2 | [D,,D,]2 z2 D,2 | G,2 A,2 A,,2 | D,2 D,,2 |] %44

